setcps(120/4)
$: note ("[36 34 41 39]/4")
.sound("gm_electric_guitar_muted").delay(.5)

$: sound("bd*4 hh cr").bank("RolandTR707").delay(.2)

$: n("< 0*10 2 *10>")
.scale("f2:minor").sound("gm_accordion:2")
.room(4).gain(.4)
