setcps(0.5)
$: sound("oh*6").gain("[.25 1]/4")

$: sound("bd*4,[~ sd:1]*2")

$: note("<[f2 e3]*4 [bb1 bb2]*4 [f2 f3]*4 [eb2 eb3]/4>")
.sound("east jazz").lpf("200 1000")

$: note("<[f2*4,f3*2,c4]>")
.sound("numbers").vowel("<a e i o>")
