// 5
setcps(150/60/4)
d1: s("bd:1").euclid(2,4).off(1/4, add(2)).delay(0.025).pan(0)
d2: s("bd:2").euclid(5,8).off(1/4, add(8)).delay(0.025).pan(5)
// d3: s("cr:12").euclid(6,8).pan(sine)
delay(".8")
d4: s("hh:3*4").gain(0.125)
$: s("east:2*8").gain(0.125)
$: s("east:5*8").gain(0.5)
.sound("sawtooth").lpf(140)

d3: s("cr*2 ~").n(irand(2))
