setcps(150/60/4)
d1: s("bd:1").euclid(2,4).off(1/4, add(10)).delay(0.5).pan(10)
d2: s("bd:2").euclid(5,8).off(1/4, add(4)).delay(0).pan(5)
// d3: s("cr:12").euclid(6,8).pan(sine)
delay(".8")
d4: s("hh:3*4").gain(2)
$: s("east:2*8").gain(0.5)
$: s("east:5*28").gain(3)
.sound("sawtooth").lpf(200)

d3: s("cr ~").n(irand(2))
