setcps(120/40/4)

$: chord("<Am9 Am7 Cmaj7 Em7>")
  .dict("ireal")
  .voicing()
  .sound("gm_ocarina")
  .room(0.9)
  .delay(0.25)
  .pan(sine.slow(6))
  .gain("<1>")
  .mask("<1 1 0 1 0 1!8>/16")
.phaser(6).phasersweep("<800 2000 4000>")


$: note("c e g b g e")
.fm(4)
.fmdecay(.1)
.fmsustain("<1 .75 .5 0>")
._scope()
