setcps(140/60/4)

$: s("bd:4").euclid(5,8).gain(1.2).lpf(180).pan(sine)
$: s("perc:8*2").euclid(5,18).gain(0.2).hpf(100).delay(0.2)

$: ("<6 [5, 3]>").echoWith(1, 1/6, (p,n) => p.add(n/2).scale("c:minor").note())
$: ("<1 [1 0 0 -1 -1 0]>").echoWith(2, 1/4, (p,n) => p.add(n*1).scale("f:minor").note())
