
solid(1,1,1)
  	.diff(shape([4,4,4,24].smooth().fast(.5),r(0.6,0.93),.09).repeat(20,10))
	.modulateScale(osc(8).rotate(r(-.5,.5)),.52)
	.add(
  		src(o0).scale(0.965).rotate(.012*(Math.round(r(-2,1))))
  		.color(r(),r(),r())
    	.modulateRotate(o0,r(0,0.5))
  		.brightness(.15)
  		,.7)
	.out()

const h = new Hydra({ makeGlobal: false, detectAudio: false }).synth
h.osc().diff(h.shape()).out()
h.gradient().out(h.o1)
h.render()
